img/AO-Item-3.svg

<svg width="81" height="60" viewBox="0 0 81 60" fill="none" xmlns="http://www.w3.org/2000/svg">
<path d="M77.5545 29.3182L69.9696 12.785C69.7393 12.3509 69.396 11.9871 68.9759 11.7321C68.5559 11.4771 68.0748 11.3403 67.5834 11.3362H51.8171C51.139 11.3362 50.4887 11.6055 50.0093 12.085C49.5298 12.5645 49.2604 13.2148 49.2604 13.8929V29.3182H45.5958V12.3589C45.5958 11.6808 45.3265 11.0305 44.847 10.551C44.3675 10.0715 43.7172 9.80217 43.0392 9.80217H34.0907V2.55821C34.0907 1.88014 33.8214 1.22983 33.3419 0.75036C32.8624 0.270887 32.2121 0.00152291 31.534 0.00152291H11.6771C11.3381 -0.0103814 11.0003 0.0476073 10.6848 0.17188C10.3692 0.296153 10.0826 0.48405 9.84274 0.723876C9.60291 0.963702 9.41502 1.25032 9.29074 1.5659C9.16647 1.88148 9.10848 2.21926 9.12039 2.55821V18.4097C8.44231 18.4097 7.79201 18.6791 7.31253 19.1585C6.83306 19.638 6.5637 20.2883 6.5637 20.9664V29.3182H2.55821C1.88014 29.3182 1.22983 29.5876 0.75036 30.0671C0.270888 30.5466 0.00152291 31.1969 0.00152291 31.8749V50.7944C-0.0103814 51.1334 0.0476075 51.4712 0.17188 51.7868C0.296153 52.1023 0.48405 52.389 0.723876 52.6288C0.963702 52.8686 1.25032 53.0565 1.5659 53.1808C1.88148 53.305 2.21926 53.363 2.55821 53.3511H8.09771C8.6069 55.2648 9.73649 56.9556 11.3095 58.1585C12.8826 59.3614 14.8102 60.0085 16.7905 59.9985C18.7817 60.0129 20.7218 59.3689 22.3093 58.1668C23.8967 56.9647 25.0425 55.2717 25.5684 53.3511H56.1635C56.7019 55.2647 57.8509 56.9499 59.4356 58.1502C61.0202 59.3504 62.9536 60 64.9415 60C66.9293 60 68.8628 59.3504 70.4474 58.1502C72.032 56.9499 73.181 55.2647 73.7194 53.3511H77.5545C77.8934 53.363 78.2312 53.305 78.5468 53.1808C78.8624 53.0565 79.149 52.8686 79.3888 52.6288C79.6286 52.389 79.8165 52.1023 79.9408 51.7868C80.0651 51.4712 80.1231 51.1334 80.1112 50.7944V31.8749C80.1112 31.1969 79.8418 30.5466 79.3623 30.0671C78.8829 29.5876 78.2326 29.3182 77.5545 29.3182ZM11.6771 23.5231H20.3698V29.3182H11.6771V23.5231ZM16.7905 54.8852C15.9947 54.885 15.2169 54.6477 14.5565 54.2037C13.8961 53.7597 13.3829 53.129 13.0824 52.3922C12.7819 51.6553 12.7077 50.8456 12.8693 50.0664C13.0309 49.2871 13.4209 48.5737 13.9897 48.0171C14.5584 47.4604 15.2801 47.0858 16.0626 46.941C16.8451 46.7962 17.653 46.8878 18.3833 47.2041C19.1135 47.5204 19.733 48.047 20.1627 48.7168C20.5924 49.3866 20.8129 50.1693 20.7959 50.9649C20.7736 52.0124 20.3418 53.0094 19.5931 53.7423C18.8443 54.4751 17.8382 54.8854 16.7905 54.8852ZM22.9265 9.80217C22.5876 9.79027 22.2498 9.84826 21.9342 9.97253C21.6186 10.0968 21.332 10.2847 21.0922 10.5245C20.8524 10.7643 20.6645 11.051 20.5402 11.3665C20.4159 11.6821 20.3579 12.0199 20.3698 12.3589V18.4097H14.2338V5.1149H28.9774V9.80217H22.9265ZM40.4825 29.3182H25.4832V14.9156H40.4825V29.3182ZM64.9415 54.8852C64.1457 54.885 63.368 54.6477 62.7075 54.2037C62.0471 53.7597 61.5339 53.129 61.2334 52.3922C60.9329 51.6553 60.8587 50.8456 61.0203 50.0664C61.1819 49.2871 61.572 48.5737 62.1407 48.0171C62.7094 47.4604 63.4311 47.0858 64.2136 46.941C64.9961 46.7962 65.804 46.8878 66.5343 47.2041C67.2645 47.5204 67.884 48.047 68.3137 48.7168C68.7434 49.3866 68.9639 50.1693 68.947 50.9649C68.9247 52.0124 68.4928 53.0094 67.7441 53.7423C66.9953 54.4751 65.9892 54.8854 64.9415 54.8852Z" fill="white"/>
</svg>

<svg xmlns="http://www.w3.org/2000/svg" width="81" height="60" fill="none"><path fill="#fff" d="M77.55 29.32l-7.58-16.54c-.23-.43-.57-.8-1-1.05-.4-.25-.9-.4-1.4-.4H51.83c-.68 0-1.33.28-1.8.76-.5.46-.76 1.1-.76 1.8V29.3H45.6V12.36c0-.68-.27-1.33-.75-1.8-.48-.5-1.13-.76-1.8-.76h-8.96V2.56c0-.68-.28-1.33-.76-1.8-.48-.5-1.13-.76-1.8-.76H11.67c-.34 0-.68.05-1 .17-.3.13-.6.3-.84.55-.24.24-.42.53-.55.85-.13.3-.2.65-.18 1V18.4c-.68 0-1.33.28-1.8.76-.5.48-.76 1.13-.76 1.8v8.36h-4c-.68 0-1.33.27-1.8.75-.5.48-.76 1.13-.76 1.8V50.8c0 .33.05.67.17 1 .13.3.3.6.55.83.24.24.53.43.85.55.3.13.65.18 1 .17H8.1c.5 1.9 1.64 3.6 3.2 4.8 1.58 1.2 3.5 1.86 5.5 1.85 1.98 0 3.92-.63 5.5-1.83 1.6-1.2 2.74-2.9 3.27-4.82h30.6c.53 1.9 1.68 3.6 3.27 4.8 1.58 1.2 3.5 1.85 5.5 1.85s3.92-.65 5.5-1.85c1.6-1.2 2.74-2.9 3.28-4.8h3.83c.34 0 .68-.05 1-.17.3-.12.6-.3.84-.55.23-.24.42-.53.54-.84.13-.33.18-.67.17-1V31.86c0-.67-.26-1.32-.74-1.8s-1.13-.75-1.8-.75zm-65.87-5.8h8.7v5.8h-8.7v-5.8zm5.1 31.37c-.8-.02-1.56-.25-2.22-.7-.66-.44-1.18-1.07-1.48-1.8-.3-.74-.37-1.55-.2-2.33.15-.78.54-1.5 1.1-2.05.58-.56 1.3-.93 2.08-1.08.8-.14 1.6-.05 2.32.26.73.32 1.35.85 1.78 1.52.43.67.65 1.45.64 2.24-.03 1.05-.46 2.05-1.2 2.78-.76.74-1.76 1.15-2.8 1.15zm6.15-45.1c-.34 0-.68.05-1 .17-.3.13-.6.3-.84.55-.25.24-.44.53-.56.85-.12.3-.18.65-.17 1v6.04h-6.14V5.1h14.75v4.7h-6.05zm17.55 19.52h-15v-14.4h15v14.4zM64.94 54.9c-.8-.02-1.57-.25-2.23-.7-.65-.44-1.17-1.07-1.47-1.8-.3-.74-.37-1.55-.2-2.33.15-.78.54-1.5 1.1-2.05.58-.56 1.3-.93 2.08-1.08.8-.14 1.6-.05 2.33.26.73.32 1.35.85 1.78 1.52.44.67.66 1.45.65 2.24-.03 1.05-.46 2.05-1.2 2.78-.75.74-1.76 1.15-2.8 1.15z"/></svg>
